X:8
T:The Fermoy Lasses (répété)
M:4/4
L:1/8
R:reel
Q:1/2=90
K:Em
| E4 E4 | E4 E4 |
%
|: GEEE BEEF | GFGA B2BA | GEEE BEEB | AFDF AcBA |
   GEEE BEEF | GFGA B2BA | G2GF GBdB | AFDF AcBA :|
|: G2BG dGBG | GGBd efg2 | G2BG dGBG | AFDF AcBA |
   G2BG dGBG | GGBd efg2 | gage dedB | AFDF AcBA :|
%
|: GEEE BEEF | GFGA B2BA | GEEE BEEB | AFDF AcBA |
   GEEE BEEF | GFGA B2BA | G2GF GBdB | AFDF AcBA :|
|: G2BG dGBG | GGBd efg2 | G2BG dGBG | AFDF AcBA |
   G2BG dGBG | GGBd efg2 | gage dedB | AFDF AcBA :|
%
|: GEEE BEEF | GFGA B2BA | GEEE BEEB | AFDF AcBA |
   GEEE BEEF | GFGA B2BA | G2GF GBdB | AFDF AcBA :|
|: G2BG dGBG | GGBd efg2 | G2BG dGBG | AFDF AcBA |
   G2BG dGBG | GGBd efg2 | gage dedB | AFDF AcBA :|
%
|: GEEE BEEF | GFGA B2BA | GEEE BEEB | AFDF AcBA |
   GEEE BEEF | GFGA B2BA | G2GF GBdB | AFDF AcBA :|
|: G2BG dGBG | GGBd efg2 | G2BG dGBG | AFDF AcBA |
   G2BG dGBG | GGBd efg2 | gage dedB | AFDF AcBA :|
%
|: GEEE BEEF | GFGA B2BA | GEEE BEEB | AFDF AcBA |
   GEEE BEEF | GFGA B2BA | G2GF GBdB | AFDF AcBA :|
|: G2BG dGBG | GGBd efg2 | G2BG dGBG | AFDF AcBA |
   G2BG dGBG | GGBd efg2 | gage dedB | AFDF AcBA :|
%
|: GEEE BEEF | GFGA B2BA | GEEE BEEB | AFDF AcBA |
   GEEE BEEF | GFGA B2BA | G2GF GBdB | AFDF AcBA :|
|: G2BG dGBG | GGBd efg2 | G2BG dGBG | AFDF AcBA |
   G2BG dGBG | GGBd efg2 | gage dedB | AFDF AcBA :|
%
|: GEEE BEEF | GFGA B2BA | GEEE BEEB | AFDF AcBA |
   GEEE BEEF | GFGA B2BA | G2GF GBdB | AFDF AcBA :|
|: G2BG dGBG | GGBd efg2 | G2BG dGBG | AFDF AcBA |
   G2BG dGBG | GGBd efg2 | gage dedB | AFDF AcBA :|
%
|: GEEE BEEF | GFGA B2BA | GEEE BEEB | AFDF AcBA |
   GEEE BEEF | GFGA B2BA | G2GF GBdB | AFDF AcBA :|
|: G2BG dGBG | GGBd efg2 | G2BG dGBG | AFDF AcBA |
   G2BG dGBG | GGBd efg2 | gage dedB | AFDF AcBA :|
%
|: GEEE BEEF | GFGA B2BA | GEEE BEEB | AFDF AcBA |
   GEEE BEEF | GFGA B2BA | G2GF GBdB | AFDF AcBA :|
|: G2BG dGBG | GGBd efg2 | G2BG dGBG | AFDF AcBA |
   G2BG dGBG | GGBd efg2 | gage dedB | AFDF AcBA :|
%

